Newaita-dark/apps/48/org.kde.archUpdate.svg

<svg height="48pt" viewBox="0 0 48 48" width="48pt" xmlns="http://www.w3.org/2000/svg" xmlns:xlink="http://www.w3.org/1999/xlink"><linearGradient id="a"><stop offset="0" stop-opacity=".313726"/><stop offset=".222222" stop-opacity=".27451"/><stop offset="1" stop-opacity="0"/></linearGradient><radialGradient id="b" cx="450.908936" cy="189.579361" gradientTransform="matrix(.00000016 -.0878989 -.131848 -.00000011 30.639279 82.553549)" gradientUnits="userSpaceOnUse" r="21.166656" xlink:href="#a"/><radialGradient id="c" cx="450.908936" cy="189.579361" gradientTransform="matrix(-.00000016 .0878989 .131848 .00000011 -18.73189 2.540513)" gradientUnits="userSpaceOnUse" r="21.166656" xlink:href="#a"/><radialGradient id="d" cx="450.908936" cy="189.579361" gradientTransform="matrix(-.00000016 -.0878989 .131848 -.00000011 -18.73189 82.553549)" gradientUnits="userSpaceOnUse" r="21.166656" xlink:href="#a"/><radialGradient id="e" cx="450.908936" cy="189.579361" gradientTransform="matrix(.00000016 .0878989 -.131848 .00000011 30.639278 2.540513)" gradientUnits="userSpaceOnUse" r="21.166656" xlink:href="#a"/><linearGradient id="f" gradientUnits="userSpaceOnUse" x1="23.814786" x2="23.814786" y1="42.0509015" y2="4.3441580001"><stop offset="0" stop-color="#42a5f5"/><stop offset="1" stop-color="#64b5f6"/></linearGradient><radialGradient id="g" cx="450.908936" cy="189.579361" gradientTransform="matrix(.00000016 -.0732491 -.131848 -.0000001 66.857587 75.885789)" gradientUnits="userSpaceOnUse" r="21.166656" xlink:href="#a"/><radialGradient id="h" cx="450.908936" cy="189.579361" gradientTransform="matrix(-.00000016 .0732491 .131848 .0000001 17.486408 9.208274)" gradientUnits="userSpaceOnUse" r="21.166656" xlink:href="#a"/><radialGradient id="i" cx="450.908936" cy="189.579361" gradientTransform="matrix(-.00000016 -.0732491 .131848 -.0000001 17.486408 75.885789)" gradientUnits="userSpaceOnUse" r="21.166656" xlink:href="#a"/><radialGradient id="j" cx="450.908936" cy="189.579361" gradientTransform="matrix(.00000016 .0732491 -.131848 .0000001 66.857585 9.208273)" gradientUnits="userSpaceOnUse" r="21.166656" xlink:href="#a"/><path d="m5.953125 42.546875h2.480469v-1.488281h-2.480469zm0 0" fill="url(#b)"/><path d="m5.953125 42.546875h-2.480469v1.488281h2.480469zm0 0" fill="url(#c)"/><path d="m5.953125 42.546875h-2.480469v-1.488281h2.480469zm0 0" fill="url(#d)"/><path d="m5.953125 42.546875h2.480469v1.488281h-2.480469zm0 0" fill="url(#e)"/><path d="m23.90625 4.351562c-1.675781 4.105469-2.691406 6.796876-4.558594 10.78125 1.144532 1.210938 2.550782 2.617188 4.828125 4.210938-2.449219-1.007812-4.121093-2.019531-5.367187-3.070312-2.386719 4.980468-6.128906 12.070312-13.714844 25.703124 5.960938-3.441406 10.582031-5.566406 14.890625-6.375-.1875-.792968-.285156-1.65625-.277344-2.554687l.003907-.1875c.09375-3.820313 2.082031-6.757813 4.4375-6.558594 2.355468.199219 4.1875 3.460938 4.09375 7.28125-.019532.71875-.101563 1.410157-.246094 2.050781 4.261718.835938 8.839844 2.949219 14.722656 6.34375-1.160156-2.136718-2.199219-4.058593-3.1875-5.894531-1.558594-1.207031-3.183594-2.777343-6.496094-4.476562 2.277344.589843 3.910156 1.277343 5.179688 2.039062-10.050782-18.714843-10.863282-21.203125-14.308594-29.292969zm0 0" fill="url(#f)"/><path d="m23.90625 4.351562c-1.675781 4.105469-2.691406 6.796876-4.558594 10.78125.199219.207032.402344.421876.617188.640626 1.492187-3.289063 2.460937-5.8125 3.941406-9.445313 3.269531 7.675781 4.175781 10.320313 12.839844 26.550781.542968.246094 1.027344.5 1.46875.765625-10.050782-18.714843-10.863282-21.203125-14.308594-29.292969zm-5.097656 11.921876c-2.386719 4.980468-6.128906 12.070312-13.714844 25.703124.546875-.316406 1.078125-.621093 1.605469-.914062 6.515625-11.761719 9.898437-18.199219 12.109375-22.8125.914062-.386719 2.773437.359375 5.378906 1.101562-.9375-1.089843-3.226562-1.363281-4.699219-2.539062-.242187-.179688-.46875-.359375-.679687-.539062zm13.9375 15.359374c3.332031 1.6875 6.1875 4.730469 6.785156 6.425782.527344.980468 1.070312 1.988281 1.636719 3.035156.507812.285156 1.023437.578125 1.550781.882812-1.160156-2.136718-2.199219-4.058593-3.1875-5.894531-.585938-.453125-1.183594-.957031-1.875-1.503906-2.925781-1.953125-3.972656-2.671875-4.910156-2.945313zm-12.996094 2.5c-.019531.230469-.03125.464844-.039062.703126l-.003907.1875c0 .210937.003907.421874.011719.628906.089844-.019532.175781-.035156.265625-.050782-.109375-.46875-.1875-.960937-.234375-1.46875zm8.449219.15625c-.039063.464844-.105469.917969-.203125 1.34375.082031.015626.160156.03125.242187.046876 0-.039063 0-.082032.003907-.121094.007812-.433594-.003907-.855469-.042969-1.269532zm0 0" fill="#fff" fill-opacity=".392157"/><path d="m19.652344 14.484375c-.101563.210937-.199219.425781-.304688.648437.523438.554688 1.105469 1.148438 1.796875 1.785157.855469.488281 1.738281 1.824219 2.917969 2.308593-2.082031-1.457031-3.320312-3.605468-4.410156-4.742187zm4.277344 10.839844c-2.257813-.003907-4.125 2.867187-4.21875 6.570312l-.003907.1875c0 .199219.003907.394531.011719.585938.152344-3.726563 2.113281-6.5625 4.429688-6.367188 2.195312.1875 3.9375 3.035157 4.085937 6.515625.003906-.066406.003906-.132812.007813-.203125.09375-3.820312-1.738282-7.078125-4.09375-7.277343-.074219-.007813-.148438-.011719-.21875-.011719zm9.3125 6.308593c1.472656.753907 2.402343.492188 3.351562 1.175782.601562.265625 1.140625.546875 1.621094.835937-.253906-.472656-.496094-.925781-.738282-1.378906-2.25-.386719-2.5-.386719-4.234374-.632813zm-13.429688 3.035157c-4.066406.796875-8.425781 2.757812-13.933594 5.890625-.257812.472656-.515625.929687-.785156 1.417968 5.960938-3.441406 10.582031-5.566406 14.890625-6.375-.070313-.300781-.128906-.613281-.171875-.933593zm8.34375.03125c-.039062.320312-.09375.632812-.160156.933593 4.261718.835938 8.839844 2.949219 14.722656 6.34375-.261719-.480468-.511719-.941406-.761719-1.402343-5.445312-3.097657-9.769531-5.058594-13.800781-5.875zm0 0" fill-opacity=".235294"/><path d="m254.975651-168.587765c-17.873293 43.787485-28.705592 72.493077-48.620357 114.989019 12.207168 12.915433 27.205735 27.914001 51.495083 44.912377-26.122506-10.748973-43.954136-21.539609-57.244534-32.746872-25.455902 53.119927-65.368757 128.737706-146.277698 274.140487 63.577262-36.704828 112.864222-59.36933 158.818167-67.993507-1.999809-8.457526-3.041376-17.66498-2.958051-27.247398l.041663-1.999809c.999905-40.746109 22.206213-72.07645 47.328814-69.951653s44.662401 36.913141 43.662497 77.65925c-.208314 7.665935-1.08323 15.040231-2.62475 21.872912 45.453993 8.915815 94.282664 31.455329 157.026672 67.660205-12.373819-22.78949-23.456094-43.287533-33.996754-62.868996-16.623412-12.873771-33.95509-29.622171-69.28505-47.745441 24.289347 6.291066 41.704351 13.623699 55.244724 21.747923-107.198096-199.605938-115.863935-226.14507-152.610426-312.428497zm0 0" fill="none" stroke="#212121" stroke-width="3" transform="matrix(.093759 0 0 .093759 0 20.158175)"/><path d="m42.171875 42.546875h2.480469v-1.238281h-2.480469zm0 0" fill="url(#g)"/><path d="m42.171875 42.546875h-2.480469v1.242187h2.480469zm0 0" fill="url(#h)"/><path d="m42.171875 42.546875h-2.480469v-1.238281h2.480469zm0 0" fill="url(#i)"/><path d="m42.171875 42.546875h2.480469v1.242187h-2.480469zm0 0" fill="url(#j)"/></svg>

<?xml version="1.0" encoding="UTF-8"?>
<svg xmlns="http://www.w3.org/2000/svg" xmlns:xlink="http://www.w3.org/1999/xlink" width="48pt" height="48pt" viewBox="0 0 48 48" version="1.1">
<defs>
<radialGradient id="radial0" gradientUnits="userSpaceOnUse" cx="450.908936" cy="189.579361" fx="450.908936" fy="189.579361" r="21.166656" gradientTransform="matrix(0.000000163285,-0.0878989,-0.131848,-0.000000114231,30.639279,82.553549)">
<stop offset="0" style="stop-color:rgb(0%,0%,0%);stop-opacity:0.313726;"/>
<stop offset="0.222222" style="stop-color:rgb(0%,0%,0%);stop-opacity:0.27451;"/>
<stop offset="1" style="stop-color:rgb(0%,0%,0%);stop-opacity:0;"/>
</radialGradient>
<radialGradient id="radial1" gradientUnits="userSpaceOnUse" cx="450.908936" cy="189.579361" fx="450.908936" fy="189.579361" r="21.166656" gradientTransform="matrix(-0.000000163285,0.0878989,0.131848,0.000000114231,-18.73189,2.540513)">
<stop offset="0" style="stop-color:rgb(0%,0%,0%);stop-opacity:0.313726;"/>
<stop offset="0.222222" style="stop-color:rgb(0%,0%,0%);stop-opacity:0.27451;"/>
<stop offset="1" style="stop-color:rgb(0%,0%,0%);stop-opacity:0;"/>
</radialGradient>
<radialGradient id="radial2" gradientUnits="userSpaceOnUse" cx="450.908936" cy="189.579361" fx="450.908936" fy="189.579361" r="21.166656" gradientTransform="matrix(-0.000000163285,-0.0878989,0.131848,-0.000000114231,-18.73189,82.553549)">
<stop offset="0" style="stop-color:rgb(0%,0%,0%);stop-opacity:0.313726;"/>
<stop offset="0.222222" style="stop-color:rgb(0%,0%,0%);stop-opacity:0.27451;"/>
<stop offset="1" style="stop-color:rgb(0%,0%,0%);stop-opacity:0;"/>
</radialGradient>
<radialGradient id="radial3" gradientUnits="userSpaceOnUse" cx="450.908936" cy="189.579361" fx="450.908936" fy="189.579361" r="21.166656" gradientTransform="matrix(0.000000163285,0.0878989,-0.131848,0.000000114231,30.639278,2.540513)">
<stop offset="0" style="stop-color:rgb(0%,0%,0%);stop-opacity:0.313726;"/>
<stop offset="0.222222" style="stop-color:rgb(0%,0%,0%);stop-opacity:0.27451;"/>
<stop offset="1" style="stop-color:rgb(0%,0%,0%);stop-opacity:0;"/>
</radialGradient>
<linearGradient id="linear0" gradientUnits="userSpaceOnUse" x1="254" y1="233.5" x2="254" y2="-168.666656" gradientTransform="matrix(0.093759,0,0,0.093759,0,20.158175)">
<stop offset="0" style="stop-color:rgb(25.882354%,64.705884%,96.078432%);stop-opacity:1;"/>
<stop offset="1" style="stop-color:rgb(39.215687%,70.980394%,96.470588%);stop-opacity:1;"/>
</linearGradient>
<radialGradient id="radial4" gradientUnits="userSpaceOnUse" cx="450.908936" cy="189.579361" fx="450.908936" fy="189.579361" r="21.166656" gradientTransform="matrix(0.000000163285,-0.0732491,-0.131848,-0.0000000951922,66.857587,75.885789)">
<stop offset="0" style="stop-color:rgb(0%,0%,0%);stop-opacity:0.313726;"/>
<stop offset="0.222222" style="stop-color:rgb(0%,0%,0%);stop-opacity:0.27451;"/>
<stop offset="1" style="stop-color:rgb(0%,0%,0%);stop-opacity:0;"/>
</radialGradient>
<radialGradient id="radial5" gradientUnits="userSpaceOnUse" cx="450.908936" cy="189.579361" fx="450.908936" fy="189.579361" r="21.166656" gradientTransform="matrix(-0.000000163285,0.0732491,0.131848,0.0000000951922,17.486408,9.208274)">
<stop offset="0" style="stop-color:rgb(0%,0%,0%);stop-opacity:0.313726;"/>
<stop offset="0.222222" style="stop-color:rgb(0%,0%,0%);stop-opacity:0.27451;"/>
<stop offset="1" style="stop-color:rgb(0%,0%,0%);stop-opacity:0;"/>
</radialGradient>
<radialGradient id="radial6" gradientUnits="userSpaceOnUse" cx="450.908936" cy="189.579361" fx="450.908936" fy="189.579361" r="21.166656" gradientTransform="matrix(-0.000000163285,-0.0732491,0.131848,-0.0000000951922,17.486408,75.885789)">
<stop offset="0" style="stop-color:rgb(0%,0%,0%);stop-opacity:0.313726;"/>
<stop offset="0.222222" style="stop-color:rgb(0%,0%,0%);stop-opacity:0.27451;"/>
<stop offset="1" style="stop-color:rgb(0%,0%,0%);stop-opacity:0;"/>
</radialGradient>
<radialGradient id="radial7" gradientUnits="userSpaceOnUse" cx="450.908936" cy="189.579361" fx="450.908936" fy="189.579361" r="21.166656" gradientTransform="matrix(0.000000163285,0.0732491,-0.131848,0.0000000951922,66.857585,9.208273)">
<stop offset="0" style="stop-color:rgb(0%,0%,0%);stop-opacity:0.313726;"/>
<stop offset="0.222222" style="stop-color:rgb(0%,0%,0%);stop-opacity:0.27451;"/>
<stop offset="1" style="stop-color:rgb(0%,0%,0%);stop-opacity:0;"/>
</radialGradient>
</defs>
<g id="surface1">
<path style=" stroke:none;fill-rule:nonzero;fill:url(#radial0);" d="M 5.953125 42.546875 L 8.433594 42.546875 L 8.433594 41.058594 L 5.953125 41.058594 Z M 5.953125 42.546875 "/>
<path style=" stroke:none;fill-rule:nonzero;fill:url(#radial1);" d="M 5.953125 42.546875 L 3.472656 42.546875 L 3.472656 44.035156 L 5.953125 44.035156 Z M 5.953125 42.546875 "/>
<path style=" stroke:none;fill-rule:nonzero;fill:url(#radial2);" d="M 5.953125 42.546875 L 3.472656 42.546875 L 3.472656 41.058594 L 5.953125 41.058594 Z M 5.953125 42.546875 "/>
<path style=" stroke:none;fill-rule:nonzero;fill:url(#radial3);" d="M 5.953125 42.546875 L 8.433594 42.546875 L 8.433594 44.035156 L 5.953125 44.035156 Z M 5.953125 42.546875 "/>
<path style=" stroke:none;fill-rule:nonzero;fill:url(#linear0);" d="M 23.90625 4.351562 C 22.230469 8.457031 21.214844 11.148438 19.347656 15.132812 C 20.492188 16.34375 21.898438 17.75 24.175781 19.34375 C 21.726562 18.335938 20.054688 17.324219 18.808594 16.273438 C 16.421875 21.253906 12.679688 28.34375 5.09375 41.976562 C 11.054688 38.535156 15.675781 36.410156 19.984375 35.601562 C 19.796875 34.808594 19.699219 33.945312 19.707031 33.046875 L 19.710938 32.859375 C 19.804688 29.039062 21.792969 26.101562 24.148438 26.300781 C 26.503906 26.5 28.335938 29.761719 28.242188 33.582031 C 28.222656 34.300781 28.140625 34.992188 27.996094 35.632812 C 32.257812 36.46875 36.835938 38.582031 42.71875 41.976562 C 41.558594 39.839844 40.519531 37.917969 39.53125 36.082031 C 37.972656 34.875 36.347656 33.304688 33.035156 31.605469 C 35.3125 32.195312 36.945312 32.882812 38.214844 33.644531 C 28.164062 14.929688 27.351562 12.441406 23.90625 4.351562 Z M 23.90625 4.351562 "/>
<path style=" stroke:none;fill-rule:nonzero;fill:rgb(100%,100%,100%);fill-opacity:0.392157;" d="M 23.90625 4.351562 Z M 23.90625 4.351562 C 22.230469 8.457031 21.214844 11.148438 19.347656 15.132812 C 19.546875 15.339844 19.75 15.554688 19.964844 15.773438 C 21.457031 12.484375 22.425781 9.960938 23.90625 6.328125 C 27.175781 14.003906 28.082031 16.648438 36.746094 32.878906 C 37.289062 33.125 37.773438 33.378906 38.214844 33.644531 C 28.164062 14.929688 27.351562 12.441406 23.90625 4.351562 Z M 18.808594 16.273438 C 16.421875 21.253906 12.679688 28.34375 5.09375 41.976562 C 5.640625 41.660156 6.171875 41.355469 6.699219 41.0625 C 13.214844 29.300781 16.597656 22.863281 18.808594 18.25 C 19.722656 17.863281 21.582031 18.609375 24.1875 19.351562 C 23.25 18.261719 20.960938 17.988281 19.488281 16.8125 C 19.246094 16.632812 19.019531 16.453125 18.808594 16.273438 Z M 32.746094 31.632812 C 36.078125 33.320312 38.933594 36.363281 39.53125 38.058594 C 40.058594 39.039062 40.601562 40.046875 41.167969 41.09375 C 41.675781 41.378906 42.191406 41.671875 42.71875 41.976562 C 41.558594 39.839844 40.519531 37.917969 39.53125 36.082031 C 38.945312 35.628906 38.347656 35.125 37.65625 34.578125 C 34.730469 32.625 33.683594 31.90625 32.746094 31.632812 Z M 19.75 34.132812 C 19.730469 34.363281 19.71875 34.597656 19.710938 34.835938 L 19.707031 35.023438 C 19.707031 35.234375 19.710938 35.445312 19.71875 35.652344 C 19.808594 35.632812 19.894531 35.617188 19.984375 35.601562 C 19.875 35.132812 19.796875 34.640625 19.75 34.132812 Z M 28.199219 34.289062 C 28.160156 34.753906 28.09375 35.207031 27.996094 35.632812 C 28.078125 35.648438 28.15625 35.664062 28.238281 35.679688 C 28.238281 35.640625 28.238281 35.597656 28.242188 35.558594 C 28.25 35.125 28.238281 34.703125 28.199219 34.289062 Z M 28.199219 34.289062 "/>
<path style=" stroke:none;fill-rule:nonzero;fill:rgb(0%,0%,0%);fill-opacity:0.235294;" d="M 19.652344 14.484375 C 19.550781 14.695312 19.453125 14.910156 19.347656 15.132812 C 19.871094 15.6875 20.453125 16.28125 21.144531 16.917969 C 22 17.40625 22.882812 18.742188 24.0625 19.226562 C 21.980469 17.769531 20.742188 15.621094 19.652344 14.484375 Z M 23.929688 25.324219 C 21.671875 25.320312 19.804688 28.191406 19.710938 31.894531 L 19.707031 32.082031 C 19.707031 32.28125 19.710938 32.476562 19.71875 32.667969 C 19.871094 28.941406 21.832031 26.105469 24.148438 26.300781 C 26.34375 26.488281 28.085938 29.335938 28.234375 32.816406 C 28.238281 32.75 28.238281 32.683594 28.242188 32.613281 C 28.335938 28.792969 26.503906 25.535156 24.148438 25.335938 C 24.074219 25.328125 24 25.324219 23.929688 25.324219 Z M 33.242188 31.632812 C 34.714844 32.386719 35.644531 32.125 36.59375 32.808594 C 37.195312 33.074219 37.734375 33.355469 38.214844 33.644531 C 37.960938 33.171875 37.71875 32.71875 37.476562 32.265625 C 35.226562 31.878906 34.976562 31.878906 33.242188 31.632812 Z M 19.8125 34.667969 C 15.746094 35.464844 11.386719 37.425781 5.878906 40.558594 C 5.621094 41.03125 5.363281 41.488281 5.09375 41.976562 C 11.054688 38.535156 15.675781 36.410156 19.984375 35.601562 C 19.914062 35.300781 19.855469 34.988281 19.8125 34.667969 Z M 28.15625 34.699219 C 28.117188 35.019531 28.0625 35.332031 27.996094 35.632812 C 32.257812 36.46875 36.835938 38.582031 42.71875 41.976562 C 42.457031 41.496094 42.207031 41.035156 41.957031 40.574219 C 36.511719 37.476562 32.1875 35.515625 28.15625 34.699219 Z M 28.15625 34.699219 "/>
<path style="fill:none;stroke-width:3;stroke-linecap:butt;stroke-linejoin:miter;stroke:rgb(12.941177%,12.941177%,12.941177%);stroke-opacity:1;stroke-miterlimit:4;" d="M 254.975651 -168.587765 C 237.102358 -124.80028 226.270059 -96.094688 206.355294 -53.598746 C 218.562462 -40.683313 233.561029 -25.684745 257.850377 -8.686369 C 231.727871 -19.435342 213.896241 -30.225978 200.605843 -41.433241 C 175.149941 11.686686 135.237086 87.304465 54.328145 232.707246 C 117.905407 196.002418 167.192367 173.337916 213.146312 164.713739 C 211.146503 156.256213 210.104936 147.048759 210.188261 137.466341 L 210.229924 135.466532 C 211.229829 94.720423 232.436137 63.390082 257.558738 65.514879 C 282.681339 67.639676 302.221139 102.42802 301.221235 143.174129 C 301.012921 150.840064 300.138005 158.21436 298.596485 165.047041 C 344.050478 173.962856 392.879149 196.50237 455.623157 232.707246 C 443.249338 209.917756 432.167063 189.419713 421.626403 169.83825 C 405.002991 156.964479 387.671313 140.216079 352.341353 122.092809 C 376.6307 128.383875 394.045704 135.716508 407.586077 143.840732 C 300.387981 -55.765206 291.722142 -82.304338 254.975651 -168.587765 Z M 254.975651 -168.587765 " transform="matrix(0.093759,0,0,0.093759,0,20.158175)"/>
<path style=" stroke:none;fill-rule:nonzero;fill:url(#radial4);" d="M 42.171875 42.546875 L 44.652344 42.546875 L 44.652344 41.308594 L 42.171875 41.308594 Z M 42.171875 42.546875 "/>
<path style=" stroke:none;fill-rule:nonzero;fill:url(#radial5);" d="M 42.171875 42.546875 L 39.691406 42.546875 L 39.691406 43.789062 L 42.171875 43.789062 Z M 42.171875 42.546875 "/>
<path style=" stroke:none;fill-rule:nonzero;fill:url(#radial6);" d="M 42.171875 42.546875 L 39.691406 42.546875 L 39.691406 41.308594 L 42.171875 41.308594 Z M 42.171875 42.546875 "/>
<path style=" stroke:none;fill-rule:nonzero;fill:url(#radial7);" d="M 42.171875 42.546875 L 44.652344 42.546875 L 44.652344 43.789062 L 42.171875 43.789062 Z M 42.171875 42.546875 "/>
</g>
</svg>
